assets/svg/303-M.svg

<svg xmlns="http://www.w3.org/2000/svg" xmlns:xlink="http://www.w3.org/1999/xlink" width="25.04" height="25.04"><defs><path id="a" d="M0 0h25.04v25.04H0z"/></defs><clipPath id="b"><use xlink:href="#a" overflow="visible"/></clipPath><path fill="none" stroke="#EC008C" stroke-linecap="round" stroke-width="1.4" d="m1.54 12.9.3-1.6M6.03 0l-.55 1.1M1.43 2.3 0 2.45m2.7 3.92L2.13 4.8M0 9.17l.63-.3m2.92-.52 1.65.93M1.54.3 1.6 0m6.6 2.28 1.53-.94m.3 3.66 1.83.5M5.3 4.12l1.8.95m1.7 2.07-1.7.8m2.13 4L7.9 10.6m-3.4 1.47.7 1.88M12.05 2.5l1.88-.2m-1.37 6-1.36.66M18.8 0l-.55 1.1M14.9 4.8l.57 1.57m2.21 3.48-1.65-.93M14.08 0l-.06.3m6.95 1.98 1.53-.94M22.23 5l1.83.5m-6.52-1.9 1.18 1.47m2.58 1.78-1.73.8m2.48 3.55-1.33-1.34m-3.55 3.98 1.45-1.2m6.42-10.2-.5.05m-.29 7.04.8-.38M1.84 23.9l-.2 1.14M1.43 14.9 0 15.04m2.98 3.93-.57-1.6m-1.78 4.1-.63.3m5.2.39-1.65-.93M1.54 12.9l.3-1.6m6.66 3.58 1.52-.95m1.84 4.17-1.83-.5m-4.63.37 1.14-1.6m2.26 3.08-1.7.8m2.47 3.25-1.33-1.33M6.32 24.5l-.26.54m5.99-9.96 1.88-.18m-.8 6.57-1.36.65m2.55 1.78-.2 1.14m1.35-6.07-.58-1.6m2.79 5.07-1.65-.93m-2.23-9.06.3-1.6m6.87 4.03 1.53-.95m1.84 4.17-1.82-.5m-4.12-1.42-.3 1.8m3.2 1.47-1.73.8m2.48 3.25-1.33-1.33m-1.64 2.33-.26.54m5.71-9.96.5-.05m.01 6.72-.8.37" clip-path="url(#b)"/></svg>

<?xml version="1.0"?>
<svg xmlns="http://www.w3.org/2000/svg" xmlns:xlink="http://www.w3.org/1999/xlink" width="25.035" height="25.035">
  <defs>
    <path id="a" d="M0 0h25.04v25.04H0z"/>
  </defs>
  <clipPath id="b">
    <use xlink:href="#a" overflow="visible"/>
  </clipPath>
  <path fill="none" stroke="#EC008C" stroke-width="1.4" d="M1.54 12.9l.3-1.6M6.03 0l-.55 1.1M1.43 2.3L0 2.45M2.7 6.37L2.13 4.8M0 9.17l.63-.3M3.55 8.35l1.65.93M1.54.3L1.6 0M8.2 2.28l1.53-.94M10.03 5l1.83.5M5.3 4.12l1.8.95M8.8 7.14l-1.7.8M9.23 11.94L7.9 10.6M4.5 12.07l.7 1.88M12.05 2.5l1.88-.2M12.56 8.3l-1.36.66M18.8 0l-.55 1.1M14.9 4.8l.57 1.57M17.68 9.85l-1.65-.93M14.08 0l-.06.3M20.97 2.28l1.53-.94M22.23 5l1.83.5M17.54 3.6l1.18 1.47M21.3 6.85l-1.73.8M22.05 11.2l-1.33-1.34M17.17 13.84l1.45-1.2M25.04 2.44l-.5.05M24.25 9.53l.8-.38M1.84 23.9l-.2 1.14M1.43 14.9L0 15.04M2.98 18.97l-.57-1.6M.63 21.47l-.63.3M5.2 22.16l-1.65-.93M1.54 12.9l.3-1.6M8.5 14.88l1.52-.95M11.86 18.1l-1.83-.5M5.4 17.97l1.14-1.6M8.8 19.45l-1.7.8M9.57 23.5l-1.33-1.33M6.32 24.5l-.26.54M12.05 15.08l1.88-.18M13.13 21.47l-1.36.65M14.32 23.9l-.2 1.14M15.47 18.97l-.58-1.6M17.68 22.44l-1.65-.93M13.8 12.45l.3-1.6M20.97 14.88l1.53-.95M24.34 18.1l-1.82-.5M18.4 16.18l-.3 1.8M21.3 19.45l-1.73.8M22.05 23.5l-1.33-1.33M19.08 24.5l-.26.54M24.53 15.08l.5-.05M25.04 21.75l-.8.37" clip-path="url(#b)" stroke-linecap="round"/>
</svg>
